!!!!SEGMENT: pl-wnifc--6670-n--001-017_gall-jan-karol--piesni-polskie-na-chor-meski-z-i-5-pan-z-nieba-i-z-lona.krn
!!!cenid: 19xx:185
!!!COM: Gall, Jan Karol
!!!COM-rismID: pe50042628
!!!CDT: 1856-1912
!!!CNT: Polish
!!!GTL: Pieśni polskie na chór męski (z. I)
!!!OTL: 5. Pan z nieba i z łona
!!!OMV: 017
!!!PDT:
!!!AGN:
!!!YEC: Copyright 2022 Narodowy Instytut Fryderyka Chopina (https://polishscores.org)
!!!YEM: License CC-BY-4.0 (https://creativecommons.org/licenses/by/4.0)
!!!SMS-siglum: PL-Wnifc
!!!SMS-shelfmark: 6670/n
!!!SMS-variant:
!!!SMS-altvar:
!!!SMS-shelfwork: 001-017 G
!!!NIFC-rismSourceID: 1001152877
!!!NIFC-rismChildID: 1001152905
!!!NIFC-islandoraID: nifc:213182
!!!URL-pdf-islandora: https://repozytorium.nifc.pl/islandora/object/nifc:213182/datastream/PDF/view
!!!URL-scan: https://polish.musicsources.pl/pl/lokalizacje/galeria/druki-muzyczne/16895/9 @EN{Scan on Polish Music Sources Website} @PL{Skany w portalu Dziedzictwo Muzyki Polskiej w otwartym dostępie}
!!!IIIF:
!!!ONB-nifc:
!!!AIN: 1 bass 1 tenor
!!!key: A-
**kern	**dynam	**kern	**text	**dynam
*part2	*part2	*part1	*part1	*part1
*staff2	*	*staff1	*staff1	*
*ICvox	*	*ICvox	*	*
*Ibass	*	*Itenor	*	*
*I"Basy.	*	*I"Tenory.	*	*
*I'	*	*I'	*	*
*clefF4	*	*clefGv	*	*
*	*	*ITrd8c12	*	*
*k[b-e-a-d-]	*	*k[b-e-a-d-]	*	*
*A-:	*	*A-:	*	*
*M3/4	*	*M3/4	*	*
*>[A,A]	*>[A,A]	*>[A,A]	*>[A,A]	*>[A,A]
=1	=1	=1	=1	=1
*>A	*>A	*>A	*>A	*>A
*	*	*	*^	*
*^	*	*^	*	*	*
!!LO:TX:a:B:t=Poco sostenuto.
!	!	!LO:DY:b:rj	!LO:TX:t=P:problem:partia zapisana bez przenośnika oktawowego	!	!	!	!LO:DY:a:rj
4E-/	4AA-\	f	4e-/	4c\	Pan	Przy-	f
4E-/	4AA-\	.	4c/	4A-\	z nie-	-stąp-	.
4F-X/	4AA-\	.	4d-/	4B-\	-ba	-my	.
=2	=2	=2	=2	=2	=2	=2	=2
4E-/	4AA-\	.	4e-/	4c\	i	do	.
4.E-/	4.C\	.	8a-/L	4.A-\	zło-	tro-	.
.	.	.	8g/	.	.	.	.
.	.	.	8a-/J	.	.	.	.
8D-/	8D-\	.	8f/	8A-\	-na	-nu	.
=3	=3	=3	=3	=3	=3	=3	=3
4E-/	4C\	.	4e-/	4A-\	Oj-	swe-	.
4E-/	4BB-\	.	4d-/	4G\	-ca	-mi	.
4E-/	4AA-\	.	4c/	4A-\	przy-	proś-	.
=4	=4	=4	=4	=4	=4	=4	=4
8E-/L	8E-\L	.	4c/	4A-\	-cho-	-ba-	.
8Dn/J	8D\J	.	.	.	.	.	.
4E-/	4E-\	.	4B-/	4G\	-dzi	-mi	.
4r	4ryy	.	4r	4ryy	.	.	.
=5	=5	=5	=5	=5	=5	=5	=5
4E-/	4AA-\	.	4e-/	4c\	o-	któ-	.
4E-/	4AA-\	.	4c/	4A-\	-to	-re-	.
4F-X/	4AA-\	.	4d-/	4B-\	się	-go	.
=6	=6	=6	=6	=6	=6	=6	=6
4E-/	4AA-\	.	4e-/	4c\	z Ma-	o-	.
4.E-/	4.C\	.	8a-/L	4.A-\	-ry-	-czę-	.
.	.	.	8g/	.	.	.	.
.	.	.	8a-/J	.	.	.	.
8D-/	8D-\	.	8f/	8A-\	-ji	-ta	.
!!LO:LB:g=original
=7	=7	=7	=7	=7	=7	=7	=7
4E-/	4C\	.	4e-/	4A-\	dziś	s pły-	.
4E-/	4BB-\	.	4d-/	4G\	Je-	-nę-	.
4E-/	4AA-\	.	4c/	4A-\	-zus	-ly	.
=8	=8	=8	=8	=8	=8	=8	=8
8E-/L	8E-\L	.	4c/	4A-\	ro-	łza-	.
8Dn/J	8D\J	.	.	.	.	.	.
4E-/	4E-\	.	4B-/	4G\	-dzi	-mi	.
4r	4ryy	.	4r	4ryy	.	.	.
=9	=9	=9	=9	=9	=9	=9	=9
!	!	!LO:DY:b:rj	!	!	!	!	!LO:DY:a:rj
4E-/	4BB-^\	p	4d-^/	4G\	Łas-	niech	p
8E-/	8D-\	.	8B-/	8G\	-ki	łas-	.
8E-/	8BB-\	.	8d-/	8G\	przy-	-ka	.
8E-/	8AAn\	.	8c/	8G\	-no-	Bo-	.
8E-/	8BB-\	.	8d-/	8G\	-si	-że	.
=10	=10	=10	=10	=10	=10	=10	=10
!	!	!	!	!	!	!	!LO:HP:a
8E-/	8BBn\	<	8e-/	8G\	gdy	two-	<
8E-/	8C\	.	8e-/	8A-\	kto	-ja	.
8D-/	8D-\	[	8f/	8A-\	o	nas	[
8E-/	8C\	.	8e-/	8A-\	nie	wspo-	.
8E-/	8BB-X\	.	8d-/	8G\	pro-	-mo-	.
!	!	!	!	!	!	!	!LO:HP:a
8E-/	8AA-\	>]]	8c/	8A-\	-si	-że	>]]
=11	=11	=11	=11	=11	=11	=11	=11
!	!	!LO:DY:b:rj	!	!	!	!	!LO:DY:a:rj
4E-/	4BB-^\	p	4d-^/	4G\	od-	zli-	p
8E-/	8D-\	.	8B-/	8G\	-pusz-	-tuj	.
8E-/	8BB-\	.	8d-/	8G\	-cza	się	.
8E-/	8AAn\	.	8c/	8G\	grze-	Pa-	.
8E-/	8BB-\	.	8d-/	8G\	-chy	-nie	.
!!LO:LB:g=original
=12	=12	=12	=12	=12	=12	=12	=12
!	!	!	!	!	!	!	!LO:HP:a
4E-/	8BBn\L	<	4e-/	8G\L	da-	od-	<
.	8C\J	.	.	8A-\J	.	.	.
8D-/	8D-\	.	8f/	8A-\	je	-dal	.
8E-/	8C\	[	8e-/	8A-\	po-	ka-	[
8E-/	8BB-X\	.	8d-/	8G\	-cie-	-ra-	.
8E-/	8AA-\	.	8c/	8A-\	-chy	-nie	.
=13	=13	=13	=13	=13	=13	=13	=13
!	!	!LO:DY:b:rj	!	!	!	!	!LO:DY:a:rj
4E-/	4AA-\	f	4e-/	4c\	o!	od	f
4E-/	4AA-\	.	4c/	4A-\	Pa-	grzesz-	.
4F-X/	4AA-\	.	4d-/	4B-\	-nie	-nych	.
=14	=14	=14	=14	=14	=14	=14	=14
4E-/	4AA-\	.	4e-/	4c\	nasz	lu-	.
!LO:N:vis=4	!LO:N:vis=4	!	!	!LO:N:vis=4	!	!	!
4.E-/	4.C\	.	8a-/L	4.A-\	świę-	-dzi	.
.	.	.	8g/	.	.	.	.
.	.	.	8a-/J	.	.	.	.
8D-/	8D-\	.	8f/	8A-\	-ty	gdy	.
=15	=15	=15	=15	=15	=15	=15	=15
8E-/	8C\	.	8e-/	8A-\	nie-	trą-	.
8F/	8BB-\	.	8d-/	8A-\	-po-	-ba	.
(4E-/	2E-\	.	(4c/	2G\	-ję-	zbu-	.
4D-/)	.	.	4B-/)	.	.	.	.
=16	=16	=16	=16	=16	=16	=16	=16
2C/	2AA-\	.	2A-/	2A-\	-ty!	-dzi!	.
4r	4ryy	.	4r	4ryy	.	.	.
*v	*v	*	*	*	*	*	*
*	*	*v	*v	*	*	*
*	*	*	*v	*v	*
=:|!	=:|!	=:|!	=:|!	=:|!
*-	*-	*-	*-	*-
!!!system-decoration: [(s1,s2)]
!!!RDF**kern: > = above
!!!RDF**kern: < = below
!!!RDF**kern: N = linked
!!!ENC: Filip Voros
!!!EED: Katarzyna Serwa
!!!END: 2024-05-02
!!!EEV: 2025-03-09
